X: 280
T: Condon's Frolics
M: 6/8
L: 1/8
R: Jig
K: A Dorian
eAB c2d|edc BAG|eAB c2d|e2d eag|
eAB c2d|edc BAB|GBd gdB|ABA A3:|
eaa efg|edc BAB|cBc dcd|e2d efg|
eaa efg|edc BAB|GBd gdB|ABA A3:|

